src/size_all.svg

<?xml version="1.0" encoding="UTF-8" standalone="no"?>
<!-- Created with Inkscape (http://www.inkscape.org/) -->

<svg
   xmlns:dc="http://purl.org/dc/elements/1.1/"
   xmlns:cc="http://creativecommons.org/ns#"
   xmlns:rdf="http://www.w3.org/1999/02/22-rdf-syntax-ns#"
   xmlns:svg="http://www.w3.org/2000/svg"
   xmlns="http://www.w3.org/2000/svg"
   xmlns:sodipodi="http://sodipodi.sourceforge.net/DTD/sodipodi-0.dtd"
   xmlns:inkscape="http://www.inkscape.org/namespaces/inkscape"
   width="24"
   height="24"
   id="svg2985"
   version="1.1"
   inkscape:version="0.92.4 5da689c313, 2019-01-14"
   sodipodi:docname="size_all.svg"
   inkscape:export-filename="/home/yutyo/git/mer-cursor/src/size_all.png"
   inkscape:export-xdpi="90"
   inkscape:export-ydpi="90">
  <defs
     id="defs2987" />
  <sodipodi:namedview
     id="base"
     pagecolor="#ffffff"
     bordercolor="#666666"
     borderopacity="1.0"
     inkscape:pageopacity="0.0"
     inkscape:pageshadow="2"
     inkscape:zoom="17.71875"
     inkscape:cx="18.71455"
     inkscape:cy="9.707838"
     inkscape:current-layer="layer12"
     showgrid="true"
     inkscape:grid-bbox="true"
     inkscape:document-units="px"
     inkscape:window-width="1326"
     inkscape:window-height="718"
     inkscape:window-x="40"
     inkscape:window-y="25"
     inkscape:window-maximized="1"
     inkscape:snap-smooth-nodes="false"
     inkscape:object-nodes="true"
     showguides="false"
     inkscape:guide-bbox="true"
     inkscape:snap-midpoints="true"
     inkscape:snap-bbox="true"
     inkscape:snap-bbox-edge-midpoints="true"
     inkscape:snap-nodes="false"
     inkscape:snap-object-midpoints="true">
    <inkscape:grid
       type="xygrid"
       id="grid4393" />
    <sodipodi:guide
       orientation="1,0"
       position="0.5,15"
       id="guide3065"
       inkscape:locked="false" />
    <sodipodi:guide
       orientation="1,0"
       position="23.5,16"
       id="guide3067"
       inkscape:locked="false" />
  </sodipodi:namedview>
  <metadata
     id="metadata2990">
    <rdf:RDF>
      <cc:Work
         rdf:about="">
        <dc:format>image/svg+xml</dc:format>
        <dc:type
           rdf:resource="http://purl.org/dc/dcmitype/StillImage" />
        <dc:title></dc:title>
      </cc:Work>
    </rdf:RDF>
  </metadata>
  <g
     inkscape:groupmode="layer"
     id="layer16"
     inkscape:label="Layer" />
  <g
     inkscape:groupmode="layer"
     id="layer9"
     inkscape:label="Layer#1" />
  <g
     inkscape:groupmode="layer"
     id="layer10"
     inkscape:label="Layer#2" />
  <g
     inkscape:groupmode="layer"
     id="layer11"
     inkscape:label="Layer#3" />
  <g
     inkscape:groupmode="layer"
     id="layer12"
     inkscape:label="Layer#4">
    <path
       inkscape:transform-center-x="-3.6524511"
       inkscape:transform-center-y="0.03387945"
       sodipodi:nodetypes="cccc"
       inkscape:connector-curvature="0"
       id="path7971-6-5"
       d="m 7.2762354,9.1857472 -6.58113754,2.7803738 6.55210294,2.84815 c 0.9477779,-1.871347 1.047892,-3.653509 0.029033,-5.6285418 z"
       style="display:inline;fill:#ff6600;stroke:#2d2d2d;stroke-width:1.39019573;stroke-linecap:butt;stroke-linejoin:round;stroke-miterlimit:4;stroke-dasharray:none;stroke-opacity:1" />
    <path
       style="fill:#404040;stroke:#2d2d2d;stroke-width:1.5;stroke-linecap:butt;stroke-linejoin:round;stroke-miterlimit:4;stroke-dasharray:none;stroke-opacity:1"
       d="m 10.53125,9.53125 v 0.84375 0.15625 h -1 v 2.9375 h 1 v 1 h 2.9375 v -1 h 0.4375 0.5625 v -2.9375 H 13.625 13.46875 v -0.4375 -0.5625 z"
       id="path3859"
       inkscape:connector-curvature="0" />
    <path
       style="display:inline;fill:#ff6600;stroke:#2d2d2d;stroke-width:1.39019573;stroke-linecap:butt;stroke-linejoin:round;stroke-miterlimit:4;stroke-dasharray:none;stroke-opacity:1"
       d="m 16.723765,9.1857474 6.581137,2.7803736 -6.552103,2.84815 c -0.947778,-1.871347 -1.047892,-3.653509 -0.02903,-5.6285417 z"
       id="path4372"
       inkscape:connector-curvature="0"
       sodipodi:nodetypes="cccc"
       inkscape:transform-center-y="0.03387935"
       inkscape:transform-center-x="3.6524511" />
    <path
       style="display:inline;fill:#ff6600;stroke:#2d2d2d;stroke-width:1.39019573;stroke-linecap:butt;stroke-linejoin:round;stroke-miterlimit:4;stroke-dasharray:none;stroke-opacity:1"
       d="M 14.814253,7.2762356 12.033879,0.69509803 9.185729,7.247201 c 1.871347,0.9477779 3.653509,1.047892 5.628542,0.029033 z"
       id="path3091"
       inkscape:connector-curvature="0"
       sodipodi:nodetypes="cccc"
       inkscape:transform-center-y="0.03387945"
       inkscape:transform-center-x="-3.6524511" />
    <path
       inkscape:transform-center-x="3.6524511"
       inkscape:transform-center-y="0.03387935"
       sodipodi:nodetypes="cccc"
       inkscape:connector-curvature="0"
       id="path3095"
       d="m 14.814253,16.723765 -2.780374,6.581137 -2.84815,-6.552103 c 1.871347,-0.947778 3.653509,-1.047892 5.628542,-0.02903 z"
       style="display:inline;fill:#ff6600;stroke:#2d2d2d;stroke-width:1.39019573;stroke-linecap:butt;stroke-linejoin:round;stroke-miterlimit:4;stroke-dasharray:none;stroke-opacity:1" />
  </g>
  <g
     inkscape:groupmode="layer"
     id="layer13"
     inkscape:label="Layer#5" />
</svg>

<?xml version="1.0" encoding="UTF-8" standalone="no"?>
<!-- Created with Inkscape (http://www.inkscape.org/) -->

<svg
   xmlns:dc="http://purl.org/dc/elements/1.1/"
   xmlns:cc="http://creativecommons.org/ns#"
   xmlns:rdf="http://www.w3.org/1999/02/22-rdf-syntax-ns#"
   xmlns:svg="http://www.w3.org/2000/svg"
   xmlns="http://www.w3.org/2000/svg"
   xmlns:sodipodi="http://sodipodi.sourceforge.net/DTD/sodipodi-0.dtd"
   xmlns:inkscape="http://www.inkscape.org/namespaces/inkscape"
   width="24"
   height="24"
   id="svg2985"
   version="1.1"
   inkscape:version="0.48.4 r9939"
   sodipodi:docname="size_all.svg">
  <defs
     id="defs2987" />
  <sodipodi:namedview
     id="base"
     pagecolor="#ffffff"
     bordercolor="#666666"
     borderopacity="1.0"
     inkscape:pageopacity="0.0"
     inkscape:pageshadow="2"
     inkscape:zoom="32"
     inkscape:cx="18.658113"
     inkscape:cy="9.707838"
     inkscape:current-layer="layer12"
     showgrid="true"
     inkscape:grid-bbox="true"
     inkscape:document-units="px"
     inkscape:window-width="1861"
     inkscape:window-height="1176"
     inkscape:window-x="1979"
     inkscape:window-y="24"
     inkscape:window-maximized="1"
     inkscape:snap-smooth-nodes="false"
     inkscape:object-nodes="true"
     showguides="false"
     inkscape:guide-bbox="true"
     inkscape:snap-midpoints="true"
     inkscape:snap-bbox="true"
     inkscape:snap-bbox-edge-midpoints="true"
     inkscape:snap-nodes="false"
     inkscape:snap-object-midpoints="true">
    <inkscape:grid
       type="xygrid"
       id="grid4393" />
    <sodipodi:guide
       orientation="1,0"
       position="0.5,15"
       id="guide3065" />
    <sodipodi:guide
       orientation="1,0"
       position="23.5,16"
       id="guide3067" />
  </sodipodi:namedview>
  <metadata
     id="metadata2990">
    <rdf:RDF>
      <cc:Work
         rdf:about="">
        <dc:format>image/svg+xml</dc:format>
        <dc:type
           rdf:resource="http://purl.org/dc/dcmitype/StillImage" />
        <dc:title></dc:title>
      </cc:Work>
    </rdf:RDF>
  </metadata>
  <g
     inkscape:groupmode="layer"
     id="layer16"
     inkscape:label="Layer" />
  <g
     inkscape:groupmode="layer"
     id="layer9"
     inkscape:label="Layer#1" />
  <g
     inkscape:groupmode="layer"
     id="layer10"
     inkscape:label="Layer#2" />
  <g
     inkscape:groupmode="layer"
     id="layer11"
     inkscape:label="Layer#3" />
  <g
     inkscape:groupmode="layer"
     id="layer12"
     inkscape:label="Layer#4">
    <path
       inkscape:transform-center-x="-3.6524511"
       inkscape:transform-center-y="0.03387945"
       sodipodi:nodetypes="cccc"
       inkscape:connector-curvature="0"
       id="path7971-6-5"
       d="m 7.2762354,9.1857472 -6.58113754,2.7803738 6.55210294,2.84815 c 0.9477779,-1.871347 1.047892,-3.653509 0.029033,-5.6285418 z"
       style="fill:#d64933;stroke:#2d2d2d;stroke-width:1.39019573;stroke-linecap:butt;stroke-linejoin:round;stroke-miterlimit:4;stroke-opacity:1;stroke-dasharray:none;display:inline" />
    <path
       style="fill:#e8e8e8;stroke:#2d2d2d;stroke-width:1.5;stroke-linecap:butt;stroke-linejoin:round;stroke-miterlimit:4;stroke-opacity:1;stroke-dasharray:none"
       d="M 10.53125 9.53125 L 10.53125 10.375 L 10.53125 10.53125 L 9.53125 10.53125 L 9.53125 13.46875 L 10.53125 13.46875 L 10.53125 14.46875 L 13.46875 14.46875 L 13.46875 13.46875 L 13.90625 13.46875 L 14.46875 13.46875 L 14.46875 10.53125 L 13.625 10.53125 L 13.46875 10.53125 L 13.46875 10.09375 L 13.46875 9.53125 L 10.53125 9.53125 z "
       id="path3859" />
    <path
       style="fill:#d64933;stroke:#2d2d2d;stroke-width:1.39019573;stroke-linecap:butt;stroke-linejoin:round;stroke-miterlimit:4;stroke-opacity:1;stroke-dasharray:none;display:inline"
       d="m 16.723765,9.1857474 6.581137,2.7803736 -6.552103,2.84815 c -0.947778,-1.871347 -1.047892,-3.653509 -0.02903,-5.6285417 z"
       id="path4372"
       inkscape:connector-curvature="0"
       sodipodi:nodetypes="cccc"
       inkscape:transform-center-y="0.03387935"
       inkscape:transform-center-x="3.6524511" />
    <path
       style="fill:#d64933;stroke:#2d2d2d;stroke-width:1.39019573;stroke-linecap:butt;stroke-linejoin:round;stroke-miterlimit:4;stroke-opacity:1;stroke-dasharray:none;display:inline"
       d="M 14.814253,7.2762356 12.033879,0.69509803 9.185729,7.247201 c 1.871347,0.9477779 3.653509,1.047892 5.628542,0.029033 z"
       id="path3091"
       inkscape:connector-curvature="0"
       sodipodi:nodetypes="cccc"
       inkscape:transform-center-y="0.03387945"
       inkscape:transform-center-x="-3.6524511" />
    <path
       inkscape:transform-center-x="3.6524511"
       inkscape:transform-center-y="0.03387935"
       sodipodi:nodetypes="cccc"
       inkscape:connector-curvature="0"
       id="path3095"
       d="m 14.814253,16.723765 -2.780374,6.581137 -2.84815,-6.552103 c 1.871347,-0.947778 3.653509,-1.047892 5.628542,-0.02903 z"
       style="fill:#d64933;stroke:#2d2d2d;stroke-width:1.39019573;stroke-linecap:butt;stroke-linejoin:round;stroke-miterlimit:4;stroke-opacity:1;stroke-dasharray:none;display:inline" />
  </g>
  <g
     inkscape:groupmode="layer"
     id="layer13"
     inkscape:label="Layer#5" />
</svg>
